svgs/sharp-solid/user-plus.svg

<svg xmlns="http://www.w3.org/2000/svg" viewBox="0 0 640 512"><!--! Font Awesome Pro 6.6.0 by @fontawesome - https://fontawesome.com License - https://fontawesome.com/license (Commercial License) Copyright 2024 Fonticons, Inc. --><path d="M96 128a128 128 0 1 1 256 0A128 128 0 1 1 96 128zM384 304l64 208L0 512 64 304l320 0zm120 32l0-24 0-64-64 0-24 0 0-48 24 0 64 0 0-64 0-24 48 0 0 24 0 64 64 0 24 0 0 48-24 0-64 0 0 64 0 24-48 0z"/></svg>

<svg xmlns="http://www.w3.org/2000/svg" viewBox="0 0 640 512"><!--! Font Awesome Pro 6.4.2 by @fontawesome - https://fontawesome.com License - https://fontawesome.com/license (Commercial License) Copyright 2023 Fonticons, Inc. --><path d="M96 128a128 128 0 1 1 256 0A128 128 0 1 1 96 128zM384 304l64 208H0L64 304H384zm120 32V312 248H440 416V200h24 64V136 112h48v24 64h64 24v48H616 552v64 24H504z"/></svg>
